packages/foundations/assets/icons/functional/images/business & payment/shopping_basket_disabled_20.svg

<svg width="20" height="20" viewBox="0 0 20 20" fill="none" xmlns="http://www.w3.org/2000/svg">
<g clip-path="url(#clip0_184_128)">
<path fill-rule="evenodd" clip-rule="evenodd" d="M9.9683 2.49988C11.5883 2.49988 12.8783 3.31588 13.5313 4.55388L14.7913 3.29288C14.8842 3.1999 14.9945 3.12614 15.1159 3.07582C15.2373 3.02549 15.3674 2.99959 15.4988 2.99959C15.6302 2.99959 15.7603 3.02549 15.8817 3.07582C16.0031 3.12614 16.1134 3.1999 16.2063 3.29288C16.5663 3.65288 16.6353 4.27688 16.2063 4.70688C12.0415 8.87537 7.87479 13.042 3.7063 17.2069C3.51879 17.3945 3.26442 17.5 2.99915 17.5001C2.73388 17.5002 2.47944 17.3949 2.2918 17.2074C2.10416 17.0199 1.99869 16.7655 1.9986 16.5002C1.9985 16.235 2.10379 15.9805 2.2913 15.7929C2.6613 15.4189 3.0333 15.0469 3.4063 14.6759L2.0193 7.69888C1.99305 7.56271 1.99518 7.42258 2.02556 7.28727C2.05594 7.15197 2.11391 7.02438 2.19585 6.9125C2.27779 6.80062 2.38194 6.70685 2.50177 6.63705C2.62161 6.56726 2.75455 6.52294 2.8923 6.50688L3.0063 6.49988H5.9993C5.9993 4.27588 7.6293 2.49988 9.9683 2.49988ZM17.2123 6.52388C17.6523 6.62388 18.1053 7.07988 17.9803 7.69888C17.4627 10.3616 16.943 13.0239 16.4213 15.6859C16.3353 16.1159 15.9263 16.5089 15.4233 16.4999H7.2353L9.2353 14.4989L14.6133 14.4999L15.8903 7.84588L17.2123 6.52388ZM9.5833 8.49988H4.2323L5.1133 12.9689L9.5833 8.49888V8.49988ZM9.9993 4.49988C8.8093 4.49988 8.0773 5.23788 8.0133 6.33988L8.0093 6.49988L11.5843 6.49888L11.9693 6.11588C11.8143 5.15988 11.0763 4.49988 9.9993 4.49988Z" fill="#1A1C1F"/>
</g>
<defs>
<clipPath id="clip0_184_128">
<rect width="20" height="20" fill="white"/>
</clipPath>
</defs>
</svg>

<svg xmlns="http://www.w3.org/2000/svg" width="20" height="20" fill="none"><g clip-path="url(#a)"><path fill="#1A1C1F" fill-rule="evenodd" d="M9.968 2.5c1.62 0 2.91.816 3.563 2.054l1.26-1.261a1 1 0 0 1 1.415 0c.36.36.43.984 0 1.414a20236 20236 0 0 1-12.5 12.5 1 1 0 0 1-1.415-1.414q.555-.56 1.115-1.117L2.02 7.699a1.01 1.01 0 0 1 .873-1.192l.114-.007H6c0-2.224 1.63-4 3.97-4m7.244 4.024c.44.1.893.556.768 1.175q-.776 3.994-1.559 7.987c-.086.43-.495.823-.998.814H7.235l2-2.001h5.378l1.277-6.653zM9.583 8.5h-5.35l.88 4.469 4.47-4.47m.416-4c-1.19 0-1.922.738-1.986 1.84l-.004.16 3.575-.001.385-.383C11.814 5.16 11.076 4.5 10 4.5" clip-rule="evenodd"/></g><defs><clipPath id="a"><path fill="#fff" d="M0 0h20v20H0z"/></clipPath></defs></svg>
